X:32
T:L'Internazionale
C:E. Pottier, P. Degeyter
N:TablEdited by Vito Minerva
L:1/8
Q:1/4=120
M:4/4
K:C
z6 G2 | "C"c2 z3/2B/ d3/2c/ G3/2E/ | "F"A4 F3A | "G7"d2 z3/2c/ B3/2A/ G3/2F/ | 
"C"E6 G3/2G/ | c2 z3/2B/ d3/2c/ G3/2E/ | "Dm"A4 F2 d3/2c/ | "G7"B2 d3/2e/ f2 B2 | 
"C"c6 e3/2d/ | "G7"B3B "D7"A3/2B/ c3/2A/ | "G"B4 G2 G3/2G/ | "D7"A2 A3/2A/ d2 c2 | 
"G"B7/1d | d2 z3/2B/ A3/2G/ ^F3/2G/ | "Am"e4 "D7"c3/2A/ B3/2c/ | "G7"B2 d2 "D7"c2 A2 | 
"G"G4 "G7"z2 e3/2d/ | "C"c4 G2 G3/2E/ | "Dm"A4 F2 d3/2c/ | "G7"B4 A2 G2 | "C"G6 G2 | 
e4 "Dm"d2 A2 | "Am"c4 "G"B3A | "D"A3^G "D7"A3d | "G"d4 "G7"z2 e3/2d/ | "C"c4 G2 G3/2E/ | 
"F"A4 "Dm"F2 d3/2c/ | "G7"B4 A2 G2 | "C"e6 e2 | "A7"g4 f2 e2 | "Dm"d2 e2 "Fm"f3f | 
"C"e3c "G7"d3B | "C"c8 | 
 

